icons/2_Variations/Discourse bg.var.svg

<svg xmlns="http://www.w3.org/2000/svg" width="1024" height="1024" fill="none">
   <g clip-path="url(#a)">
      <path fill="#71A372" d="M512 1024c282.77 0 512-229.23 512-512S794.77 0 512 0 0 229.23 0 512s229.23 512 512 512Z"/>
      <path fill="#fff" d="m456 627.08-85.76 29.1-.89.2 33-76.86a137.415 137.415 0 0 1 12.759-128.784A137.41 137.41 0 0 1 529.21 389.67c4.846 0 9.69.253 14.51.76A136.576 136.576 0 0 1 610.16 416a137.332 137.332 0 0 1-30.452 191.782 137.33 137.33 0 0 1-66.358 25.458 136.996 136.996 0 0 1-57.35-6.16Zm309.7-115.22c0 138.91-112.62 255.86-251.54 255.86l-255.77.28s-.09-256-.09-260.47C258.3 368.61 375.24 256 514.16 256c138.92 0 251.54 116.94 251.54 255.86Zm-125.37-97.42a155.89 155.89 0 0 1-187.69 237l-99.11 22.41L425 653.68l24.82-8.42a159.269 159.269 0 0 0 48.66 7.61 161.313 161.313 0 0 0 16.78-.88 160.099 160.099 0 0 0 128.9-225.27 130.202 130.202 0 0 0-13.69-20.91c-.07-.1-1.93-2.47-3.59-4.39-.57-.54-2-1.73-3.29-2.8l-1.9-1.56-.63-.51c-12.43-10-21.59-14.59-21.59-14.59a159.564 159.564 0 0 0-49.7-13.49 162.52 162.52 0 0 0-16.9-.89 159.992 159.992 0 0 0-129.766 66.782A160.001 160.001 0 0 0 381.53 578.7l2 5.65c.34.887.673 1.773 1 2.66l-6.74 15.68-26.42 71.6h-.12l28.19-90.77a155.902 155.902 0 0 1 133.103-230.149 155.902 155.902 0 0 1 98.967 32.249 155.914 155.914 0 0 0-211.016-13.744 155.914 155.914 0 0 0-56.206 98.632A155.915 155.915 0 0 0 369.87 581.11l-18.55 93.22h.12l.46-.05-.47.16.64-.18 102.41-12.1a155.883 155.883 0 0 0 203.197-41.112A155.882 155.882 0 0 0 640.33 414.46v-.02Z"/>
   </g>
   <defs>
      <clipPath id="a">
         <path fill="#fff" d="M0 0h1024v1024H0z"/>
      </clipPath>
   </defs>
</svg>

<svg width="1024" height="1024" viewBox="0 0 1024 1024" fill="none" xmlns="http://www.w3.org/2000/svg">
<g clip-path="url(#clip0_3_68)">
<path d="M512 1024C794.77 1024 1024 794.77 1024 512C1024 229.23 794.77 0 512 0C229.23 0 0 229.23 0 512C0 794.77 229.23 1024 512 1024Z" fill="#71A372"/>
<path d="M456 627.08L370.24 656.18L369.35 656.38L402.35 579.52C393.736 558.657 390.394 535.993 392.619 513.532C394.845 491.071 402.569 469.503 415.109 450.736C427.65 431.969 444.62 416.58 464.52 405.93C484.421 395.279 506.639 389.695 529.21 389.67C534.056 389.67 538.9 389.923 543.72 390.43C567.738 392.93 590.663 401.753 610.16 416C624.316 435.506 633.089 458.395 635.598 482.366C638.107 506.336 634.263 530.545 624.452 552.56C614.641 574.575 599.21 593.62 579.708 607.782C560.206 621.944 537.32 630.724 513.35 633.24C494.013 635.28 474.463 633.18 456 627.08ZM765.7 511.86C765.7 650.77 653.08 767.72 514.16 767.72L258.39 768C258.39 768 258.3 512 258.3 507.53C258.3 368.61 375.24 256 514.16 256C653.08 256 765.7 372.94 765.7 511.86ZM640.33 414.44C661.448 441.99 672.766 475.799 672.492 510.51C672.218 545.221 660.366 578.848 638.815 606.06C617.265 633.273 587.248 652.514 553.524 660.734C519.799 668.954 484.295 665.684 452.64 651.44L353.53 673.85L425 653.68L449.82 645.26C465.547 650.304 481.963 652.872 498.48 652.87C504.085 652.868 509.686 652.575 515.26 651.99C540.454 649.31 564.653 640.689 585.867 626.836C607.081 612.982 624.704 594.292 637.287 572.301C649.87 550.31 657.055 525.646 658.249 500.338C659.444 475.029 654.615 449.799 644.16 426.72C640.278 419.327 635.693 412.325 630.47 405.81C630.4 405.71 628.54 403.34 626.88 401.42C626.31 400.88 624.88 399.69 623.59 398.62L621.69 397.06L621.06 396.55C608.63 386.55 599.47 381.96 599.47 381.96C583.743 374.802 566.958 370.246 549.77 368.47C544.156 367.88 538.515 367.583 532.87 367.58C507.494 367.623 482.492 373.702 459.929 385.314C437.366 396.925 417.888 413.737 403.104 434.362C388.319 454.986 378.653 478.831 374.901 503.928C371.15 529.025 373.422 554.654 381.53 578.7L383.53 584.35C383.87 585.237 384.203 586.123 384.53 587.01L377.79 602.69L351.37 674.29H351.25L379.44 583.52C362.416 552.117 356.693 515.82 363.227 480.702C369.762 445.584 388.158 413.775 415.338 390.597C442.518 367.418 476.833 354.277 512.543 353.371C548.252 352.465 583.189 363.85 611.51 385.62C584.5 357.231 547.79 340.053 508.688 337.506C469.586 334.96 430.958 347.23 400.494 371.876C370.03 396.522 349.963 431.736 344.288 470.508C338.614 509.28 347.747 548.767 369.87 581.11L351.32 674.33H351.44L351.9 674.28L351.43 674.44L352.07 674.26L454.48 662.16C487.499 681.411 526.441 687.859 563.904 680.28C601.366 672.7 634.738 651.621 657.677 621.048C680.616 590.475 691.523 552.54 688.325 514.452C685.126 476.364 668.046 440.779 640.33 414.46V414.44Z" fill="white"/>
</g>
<defs>
<clipPath id="clip0_3_68">
<rect width="1024" height="1024" fill="white"/>
</clipPath>
</defs>
</svg>
